X:1
T:The Courteous Knight
M:3/4
L:1/4
K:C
 G2 G| G2 D| F2 G| A3| A3/2 B/2 c| d2 f| e3/2 d/2 c| B3| G3/2 G/2 D|\
 G3/2 A/2B/2-c/2| d2 c| B2 B| c2 c| d2 e| c3/2 d/2 B| A3|
